packages/kaspersky-hexa-ui-icons/src/iconsSVGs/24/LinksChecked.svg

<svg width="24" height="24" viewBox="0 0 24 24" fill="none" xmlns="http://www.w3.org/2000/svg">
<path fill-rule="evenodd" clip-rule="evenodd" d="M16.4999 12.0001C18.9851 12.0001 20.9999 14.0148 20.9999 16.5001C20.9998 17.3805 20.7475 18.202 20.3104 18.8956L22.7069 21.2931C23.0974 21.6836 23.0974 22.3166 22.7069 22.7072C22.3164 23.0975 21.6833 23.0976 21.2928 22.7072L18.8964 20.3097C18.2026 20.7468 17.3804 21.0001 16.4999 21.0001C14.0148 20.9999 11.9999 18.9852 11.9999 16.5001C11.9999 14.0149 14.0147 12.0003 16.4999 12.0001ZM16.4999 14.0001C15.1193 14.0003 13.9999 15.1195 13.9999 16.5001C13.9999 17.8807 15.1193 18.9999 16.4999 19.0001C17.8805 19.0001 18.9998 17.8808 18.9999 16.5001C18.9999 15.1194 17.8806 14.0001 16.4999 14.0001Z" fill="black"/>
<path d="M6.66588 9.65344C7.05632 9.26322 7.68946 9.2633 8.07995 9.65344C8.47047 10.044 8.47047 10.678 8.07995 11.0685L5.76354 13.3849C4.43801 14.7106 4.43798 16.86 5.76354 18.1857C7.00192 19.4239 8.95883 19.505 10.2919 18.4298C10.4959 19.087 10.8026 19.6986 11.1913 20.2482C9.09199 21.6755 6.2107 21.4608 4.34948 19.5997C2.24287 17.493 2.2429 14.0775 4.34948 11.9708L6.66588 9.65344Z" fill="black"/>
<path d="M13.5663 8.96887C13.9568 8.57843 14.5898 8.57842 14.9803 8.96887C15.297 9.28567 15.3562 9.76175 15.159 10.1388C12.6375 10.6677 10.6534 12.6578 10.1337 15.1827C9.74999 15.4105 9.24789 15.3613 8.91784 15.0314C8.52737 14.6408 8.52733 14.0078 8.91784 13.6173L13.5663 8.96887Z" fill="black"/>
<path d="M11.9198 4.40051C14.0265 2.29391 17.442 2.2939 19.5487 4.40051C21.3922 6.24424 21.6214 9.08973 20.2381 11.1837C19.6886 10.7966 19.0774 10.491 18.4208 10.2882C19.4508 8.95678 19.3562 7.03631 18.1346 5.81457C16.809 4.48901 14.6595 4.48903 13.3339 5.81457L11.0057 8.1427C10.6152 8.53322 9.98121 8.53322 9.59069 8.1427C9.20052 7.75218 9.20038 7.11906 9.59069 6.72864L11.9198 4.40051Z" fill="black"/>
</svg>

<svg xmlns="http://www.w3.org/2000/svg" width="24" height="24" fill="none" viewBox="0 0 24 24"><path fill="#000" fill-rule="evenodd" d="M11.9195 4.4005c2.1068-2.1066 5.5222-2.1066 7.6289 0 1.8436 1.8437 2.0728 4.6892.6895 6.7832a6.47 6.47 0 0 0-1.8174-.8955c1.03-1.3314.9354-3.2519-.2861-4.4736-1.3257-1.3256-3.4751-1.3256-4.8008 0l-2.3281 2.3281c-.3905.3905-1.0245.3905-1.415 0-.3902-.3905-.3904-1.0236 0-1.414zM13.566 8.969c.3905-.3905 1.0236-.3905 1.4141 0 .3166.3168.3758.7929.1787 1.1699-2.5216.5289-4.5057 2.519-5.0254 5.0439-.3836.2278-.8857.1786-1.2158-.1513-.3905-.3906-.3905-1.0236 0-1.4141zm-6.9003.6845c.3904-.3902 1.0235-.3901 1.414 0 .3905.3906.3905 1.0246 0 1.4151L5.7633 13.385c-1.3255 1.3257-1.3256 3.4751 0 4.8008 1.2384 1.2382 3.1953 1.3193 4.5283.2441a6.48 6.48 0 0 0 .8994 1.8184c-2.0993 1.4273-4.9805 1.2126-6.8418-.6485-2.1066-2.1067-2.1065-5.5221 0-7.6289zm9.8339 2.3467c2.4853 0 4.5 2.0147 4.5 4.5 0 .8804-.2524 1.7019-.6894 2.3955l2.3964 2.3975c.3906.3905.3906 1.0235 0 1.4141-.3905.3903-1.0236.3904-1.414 0l-2.3965-2.3975a4.48 4.48 0 0 1-2.3965.6904c-2.4851-.0001-4.4999-2.0149-4.5-4.5s2.0149-4.4998 4.5-4.5m0 2c-1.3805.0002-2.5 1.1194-2.5 2.5.0001 1.3806 1.1195 2.4999 2.5 2.5 1.3807 0 2.5-1.1193 2.5-2.5s-1.1193-2.5-2.5-2.5"/></svg>
